svg/editor/sort_descending_line.svg

<?xml version="1.0" encoding="UTF-8"?>
<svg width="24px" height="24px" viewBox="0 0 24 24" version="1.1" xmlns="http://www.w3.org/2000/svg" xmlns:xlink="http://www.w3.org/1999/xlink">
    <title>sort_descending_line</title>
    <g id="页面-1" stroke="none" stroke-width="1" fill="none" fill-rule="evenodd">
        <g id="Editor" transform="translate(-768.000000, -96.000000)" fill-rule="nonzero">
            <g id="sort_descending_line" transform="translate(768.000000, 96.000000)">
                 <path d="M24,0 L24,24 L0,24 L0,0 L24,0 Z M12.5934901,23.257841 L12.5819402,23.2595131 L12.5108777,23.2950439 L12.4918791,23.2987469 L12.4918791,23.2987469 L12.4767152,23.2950439 L12.4056548,23.2595131 C12.3958229,23.2563662 12.3870493,23.2590235 12.3821421,23.2649074 L12.3780323,23.275831 L12.360941,23.7031097 L12.3658947,23.7234994 L12.3769048,23.7357139 L12.4804777,23.8096931 L12.4953491,23.8136134 L12.4953491,23.8136134 L12.5071152,23.8096931 L12.6106902,23.7357139 L12.6232938,23.7196733 L12.6232938,23.7196733 L12.6266527,23.7031097 L12.609561,23.275831 C12.6075724,23.2657013 12.6010112,23.2592993 12.5934901,23.257841 L12.5934901,23.257841 Z M12.8583906,23.1452862 L12.8445485,23.1473072 L12.6598443,23.2396597 L12.6498822,23.2499052 L12.6498822,23.2499052 L12.6471943,23.2611114 L12.6650943,23.6906389 L12.6699349,23.7034178 L12.6699349,23.7034178 L12.678386,23.7104931 L12.8793402,23.8032389 C12.8914285,23.8068999 12.9022333,23.8029875 12.9078286,23.7952264 L12.9118235,23.7811639 L12.8776777,23.1665331 C12.8752882,23.1545897 12.8674102,23.1470016 12.8583906,23.1452862 L12.8583906,23.1452862 Z M12.1430473,23.1473072 C12.1332178,23.1423925 12.1221763,23.1452606 12.1156365,23.1525954 L12.1099173,23.1665331 L12.0757714,23.7811639 C12.0751323,23.7926639 12.0828099,23.8018602 12.0926481,23.8045676 L12.108256,23.8032389 L12.3092106,23.7104931 L12.3186497,23.7024347 L12.3186497,23.7024347 L12.3225043,23.6906389 L12.340401,23.2611114 L12.337245,23.2485176 L12.337245,23.2485176 L12.3277531,23.2396597 L12.1430473,23.1473072 Z" id="MingCute" fill-rule="nonzero"></path>
                <path d="M18,4 C18.5523,4 19,4.44772 19,5 L19,17.414 L20.1213,16.2927 C20.5118,15.9022 21.145,15.9022 21.5355,16.2927 C21.9261,16.6832 21.9261,17.3164 21.5355,17.7069 L18.7071,20.5354 C18.3166,20.9259 17.6834,20.9259 17.2929,20.5354 L14.4645,17.7069 C14.0739,17.3164 14.0739,16.6832 14.4645,16.2927 C14.855,15.9022 15.4882,15.9022 15.8787,16.2927 L17,17.414 L17,5 C17,4.44772 17.4477,4 18,4 Z M11,18 C11.5523,18 12,18.4477 12,19 C12,19.51285 11.613973,19.9355092 11.1166239,19.9932725 L11,20 L4,20 C3.44772,20 3,19.5523 3,19 C3,18.48715 3.38604429,18.0644908 3.88337975,18.0067275 L4,18 L11,18 Z M13,11 C13.5523,11 14,11.4477 14,12 C14,12.51285 13.613973,12.9355092 13.1166239,12.9932725 L13,13 L4,13 C3.44772,13 3,12.5523 3,12 C3,11.48715 3.38604429,11.0644908 3.88337975,11.0067275 L4,11 L13,11 Z M13,4 C13.5523,4 14,4.44772 14,5 C14,5.55228 13.5523,6 13,6 L4,6 C3.44772,6 3,5.55228 3,5 C3,4.44772 3.44772,4 4,4 L13,4 Z" id="形状" fill="#09244B"></path>
            </g>
        </g>
    </g>
</svg>

<svg xmlns="http://www.w3.org/2000/svg" width="24" height="24"><g fill="none" fill-rule="nonzero"><path d="M24 0v24H0V0h24ZM12.593 23.258l-.011.002-.071.035-.02.004-.014-.004-.071-.035c-.01-.004-.019-.001-.024.005l-.004.01-.017.428.005.02.01.013.104.074.015.004.012-.004.104-.074.012-.016.004-.017-.017-.427c-.002-.01-.009-.017-.017-.018Zm.265-.113-.013.002-.185.093-.01.01-.003.011.018.43.005.012.008.007.201.093c.012.004.023 0 .029-.008l.004-.014-.034-.614c-.003-.012-.01-.02-.02-.022Zm-.715.002a.023.023 0 0 0-.027.006l-.006.014-.034.614c0 .012.007.02.017.024l.015-.002.201-.093.01-.008.004-.011.017-.43-.003-.012-.01-.01-.184-.092Z"/><path fill="#09244B" d="M18 4a1 1 0 0 1 1 1v12.414l1.121-1.121a1 1 0 0 1 1.415 1.414l-2.829 2.828a1 1 0 0 1-1.414 0l-2.828-2.828a1 1 0 1 1 1.414-1.414L17 17.414V5a1 1 0 0 1 1-1Zm-7 14a1 1 0 0 1 .117 1.993L11 20H4a1 1 0 0 1-.117-1.993L4 18h7Zm2-7a1 1 0 0 1 .117 1.993L13 13H4a1 1 0 0 1-.117-1.993L4 11h9Zm0-7a1 1 0 1 1 0 2H4a1 1 0 0 1 0-2h9Z"/></g></svg>
